X: 1
T: Abdala
F: http://www.youtube.com/watch?v=YMf8yXaQDiQ
L: 1/8
M: 2/4
K:Cm
Q:1/4=180
%%MIDI bassprog 32 % 32 Acoustic Bass
%%MIDI program 23 % 23 Tango Accordian
%%MIDI bassvol 69
%%MIDI gchord fzfz
|:"G"FDEC|D2C=B,|C2=B,2 |C2D2   |\
  FDEC   |D2C=B,|C2=B,2 |A,2G,2 :|
|:=B,CDE |D2C=B,|C2=B,2 |C2D2   |\
  =B,CDE |D2C=B,|C2=B,2 |A,2G,2 :|
|:C2=B,2 |A,2G,2| C2=B,2|A,2G,2 :|



